app/.vuepress/public/assets/img/illustrations/containers.svg

<svg fill="none" height="210" viewBox="0 0 212 210" width="212" xmlns="http://www.w3.org/2000/svg"><path d="m0 112h163v98h-163z" fill="#11175c"/><path d="m162 112 21-18v88.128l-15 25.872" stroke="#5a63b8" stroke-linecap="round" stroke-width="1.85353"/><path d="m4 106 15.2864-16h161.7136" stroke="#5a63b8" stroke-linecap="round" stroke-width="1.85353"/><path d="m28 122v34.747 11.314 6.464 27.475" stroke="#777dba" stroke-linecap="round" stroke-width="1.85353"/><path d="m48 202c0-10.236 0-31.515 0-34.747 0-3.233 0-8.889 0-11.314l2-6.464v-27.475" stroke="#777dba" stroke-linecap="round" stroke-width="1.85353"/><path d="m74 122v34.747 11.314l-4 6.464v27.475" stroke="#777dba" stroke-linecap="round" stroke-width="1.85353"/><path d="m91 202c0-10.236 0-31.515 0-34.747 0-3.233 0-8.889 0-11.314l2-6.464v-27.475" stroke="#777dba" stroke-linecap="round" stroke-width="1.85353"/><path d="m113 122v34.747 11.314 6.464 27.475" stroke="#777dba" stroke-linecap="round" stroke-width="1.85353"/><path d="m133 202c0-10.236 0-31.515 0-34.747 0-3.233 0-8.889 0-11.314l2-6.464v-27.475" stroke="#777dba" stroke-linecap="round" stroke-width="1.85353"/><path d="m44 19h149v89h-149z" fill="#11175c"/><path d="m193 16.4043 18-13.4043v81.1702l-15 23.8298" stroke="#5a63b8" stroke-linecap="round" stroke-width="1.85353"/><path d="m46 15 14.0773-14h148.9227" stroke="#5a63b8" stroke-linecap="round" stroke-width="1.85353"/><path d="m70 29v31.7071 10.3232l-2 5.899v25.0707" stroke="#777dba" stroke-linecap="round" stroke-width="1.85353"/><path d="m87 102c0-9.3401 0-28.7576 0-31.7071s0-8.1111 0-10.3232v-5.899-25.0707" stroke="#777dba" stroke-linecap="round" stroke-width="1.85353"/><path d="m109 29v31.7071 10.3232l-2 5.899v25.0707" stroke="#777dba" stroke-linecap="round" stroke-width="1.85353"/><path d="m127 102c0-9.3401 0-28.7576 0-31.7071s0-8.1111 0-10.3232l2-5.899v-25.0707" stroke="#777dba" stroke-linecap="round" stroke-width="1.85353"/><path d="m147 29v31.7071 10.3232l-2 5.899v25.0707" stroke="#777dba" stroke-linecap="round" stroke-width="1.85353"/><path d="m165 102c0-9.3401 0-28.7576 0-31.7071s0-8.1111 0-10.3232l2-5.899v-25.0707" stroke="#777dba" stroke-linecap="round" stroke-width="1.85353"/><rect fill="#fff" height="54" rx="25" width="54" x="89" y="36"/><path d="m120.821 78.906s.708-3.4189 3.667-7.5226c2.057-1.1883 4.12-2.6444 5.867-4.3912 1.615-8.01-.837-16.6041-.837-16.6041s-8.594-2.4516-16.604-.8364c-1.747 1.7479-3.203 3.8105-4.391 5.8666-4.105 2.9584-7.523 3.6663-7.523 3.6663s2.734 1.8771 4.053 4.0071c-.562 1.6205-.826 2.6645-.826 2.6645.214 1 .847 2.1664 1.72 3.3434-.603.4781-1.309.9753-2.077 1.391-.093.0505-.186.0993-.28.1465.659 2.1735 3.57 4.9113 5.69 5.649.043-.085.088-.1688.133-.2522.428-.7887.941-1.5133 1.431-2.127 1.188.8618 2.349 1.5041 3.305 1.7707 0 0 1.046-.2636 2.666-.8254 2.129 1.3195 4.006 4.0538 4.006 4.0538zm-6.041-7.2399c-1.22-.5282-2.839-1.8287-3.943-2.9332-1.492-1.4926-2.301-2.764-2.611-3.5553.524-1.7867 2.538-7.9593 6.405-12.1089 4.665-.792 9.551.0593 11.678.5281.468 2.126 1.321 7.0133.528 11.6774-4.124 3.8473-10.207 5.848-12.057 6.3919z" fill="#54a3da"/><path d="m118.868 64.2709c1.765 0 3.195-1.4302 3.195-3.1945s-1.43-3.1946-3.195-3.1946c-1.764 0-3.194 1.4303-3.194 3.1946s1.43 3.1945 3.194 3.1945z" fill="#f1616e"/><rect fill="#fff" height="54.6687" rx="27.3343" width="54.6687" x="52.5249" y="133.92"/><g clip-rule="evenodd" fill-rule="evenodd"><path d="m82.9221 157.28h3.7088v3.72h1.8752c.8661 0 1.7568-.151 2.5768-.424.4031-.134.8553-.32 1.2528-.555-.5235-.671-.7908-1.518-.8693-2.353-.1071-1.136.1265-2.614.9096-3.503l.3899-.442.4645.367c1.1696.922 2.1534 2.21 2.3268 3.679 1.4083-.406 3.0619-.31 4.3032.393l.5096.289-.268.513c-1.0501 2.011-3.2452 2.634-5.391 2.524-3.2111 7.849-10.2019 11.564-18.6782 11.564-4.3794 0-8.397-1.606-10.685-5.419l-.0374-.062-.3334-.666c-.7733-1.678-1.0302-3.517-.856-5.354l.0523-.551h3.1717v-3.72h3.7086v-3.64h7.4178v-3.64h4.4507z" fill="#364548"/><path d="m94.938 158.656c.2487-1.896-1.1976-3.386-2.0946-4.094-1.0337 1.173-1.1943 4.247.4274 5.541-.9051.789-2.812 1.504-4.7647 1.504h-23.7693c-.1898 2.001.168 3.843.9854 5.42l.2703.485c.1712.285.3583.56.5604.825.9773.062 1.8783.083 2.7026.065h.0003c1.6199-.035 2.9416-.223 3.9434-.563.0708-.022.1474-.016.2136.017s.1168.09.1411.159c.0243.068.0203.144-.011.21s-.0875.117-.1567.143c-.1334.046-.2722.088-.4156.128h-.0005c-.7887.221-1.6346.37-2.7259.436.0649.001-.0674.01-.0678.01-.0371.002-.0838.007-.1211.009-.4295.024-.8931.029-1.367.029-.5184 0-1.0289-.01-1.5996-.038l-.0146.009c1.9804 2.185 5.0771 3.495 8.9588 3.495 8.215 0 15.183-3.574 18.2687-11.597 2.189.22 4.2929-.328 5.2498-2.161-1.5243-.864-3.4846-.588-4.6134-.032z" fill="#22a0c8"/><path d="m94.938 158.656c.2487-1.896-1.1976-3.386-2.0946-4.094-1.0337 1.173-1.1943 4.247.4274 5.541-.9051.789-2.812 1.504-4.7647 1.504h-22.3618c-.097 3.064 1.0614 5.389 3.111 6.795h.0005c1.6198-.035 2.9416-.223 3.9433-.563.0708-.022.1474-.016.2136.017s.1168.09.1411.159c.0243.068.0204.144-.0109.21s-.0875.117-.1568.143c-.1333.046-.2721.088-.4155.128h-.0005c-.7888.221-1.7073.389-2.7986.455-.0003 0-.0264-.024-.0267-.024 2.7958 1.407 6.8496 1.402 11.4974-.35 5.2114-1.965 10.0609-5.708 13.4446-9.99-.051.023-.1006.046-.1488.069z" fill="#37b1d9"/><path d="m64.7812 164.037c.1477 1.072.4672 2.075.9408 2.989l.2704.485c.1712.285.3582.561.5604.826.9774.061 1.8784.082 2.7028.065 1.6199-.036 2.9417-.223 3.9434-.564.0708-.022.1474-.015.2136.017.0662.033.1168.09.1411.159s.0204.144-.0109.21-.0875.117-.1568.143c-.1333.046-.2722.088-.4155.129h-.0005c-.7888.221-1.7025.379-2.7937.445-.0375.002-.1029.003-.1407.005-.4291.023-.888.038-1.3621.038-.5182 0-1.0483-.01-1.6187-.038 1.9804 2.184 5.0962 3.499 8.978 3.499 7.0328 0 13.1516-2.619 16.7029-8.408z" fill="#1b81a5"/><path d="m66.3584 164.037c.4204 1.882 1.4307 3.359 2.8975 4.365 1.6199-.035 2.9416-.223 3.9434-.564.0708-.022.1474-.015.2136.018.0662.032.1168.089.1411.158s.0203.144-.011.21c-.0312.066-.0875.117-.1567.143-.1334.046-.2722.088-.4156.129h-.0005c-.7887.221-1.7217.379-2.8131.445 2.7956 1.407 6.8377 1.387 11.4852-.365 2.8115-1.06 5.5175-2.638 7.9451-4.539z" fill="#1d91b4"/><path d="m67.9629 157.886h3.2144v3.155h-3.2144zm.2678.263h.2537v2.629h-.2537zm.4768 0h.2639v2.629h-.2637v-2.629zm.487 0h.2639v2.629h-.2639zm.4872 0h.2637v2.629h-.2637zm.4871 0h.2637v2.629h-.2637zm.4869 0h.2538v2.629h-.2538zm1.016-3.903h3.2146v3.155h-3.2148v-3.155zm.2679.263h.2536v2.629h-.2536zm.4769 0h.2637v2.629h-.2635v-2.629zm.4869 0h.2638v2.629h-.2638zm.4871 0h.2637v2.629h-.2637zm.4871 0h.2639v2.629h-.2639zm.4869 0h.254v2.629h-.254z" fill="#23a3c2"/><path d="m71.672 157.886h3.2146v3.154h-3.2147v-3.154zm.268.263h.2535v2.629h-.2535zm.4768 0h.2638v2.629h-.2636v-2.629zm.487 0h.2637v2.629h-.2637zm.487 0h.2638v2.629h-.2638zm.4871 0h.2639v2.629h-.2639zm.4869 0h.254v2.629h-.254z" fill="#34bbde"/><path d="m75.3809 157.886h3.2144v3.154h-3.2144zm.2677.263h.2536v2.629h-.2536zm.4769 0h.2637v2.629h-.2637zm.4871 0h.2637v2.629h-.2637zm.4871 0h.2637v2.629h-.2637zm.4869 0h.264v2.629h-.264zm.4871 0h.2536v2.629h-.2536z" fill="#23a3c2"/><path d="m75.3809 154.246h3.2144v3.155h-3.2144zm.2677.263h.2536v2.629h-.2536zm.4769 0h.2637v2.629h-.2637zm.4871 0h.2637v2.629h-.2637zm.4871 0h.2637v2.629h-.2637zm.4869 0h.264v2.629h-.264zm.4871 0h.2536v2.629h-.2536zm1.016 3.377h3.2144v3.155h-3.2144zm.2679.263h.2535v2.629h-.2535zm.4769 0h.2637v2.629h-.2637zm.4869 0h.2637v2.629h-.2637zm.4871 0h.2639v2.629h-.2639zm.4871 0h.2639v2.629h-.2639zm.487 0h.2537v2.629h-.2537z" fill="#34bbde"/><path d="m79.0894 154.246h3.2144v3.155h-3.2144zm.2679.263h.2535v2.629h-.2535zm.4769 0h.2637v2.629h-.2637zm.4869 0h.2637v2.629h-.2637zm.4871 0h.2639v2.629h-.2639zm.4871 0h.2638v2.629h-.2638zm.487 0h.2537v2.629h-.2537z" fill="#23a3c2"/><path d="m79.0894 150.606h3.2144v3.155h-3.2144zm.2679.263h.2535v2.629h-.2535zm.4769 0h.2637v2.629h-.2637zm.4869 0h.2637v2.629h-.2637zm.4871 0h.2639v2.629h-.2639zm.4871 0h.2638v2.629h-.2638zm.487 0h.2537v2.629h-.2537z" fill="#34bbde"/><path d="m82.7983 157.886h3.2145v3.154h-3.2145zm.2677.263h.2538v2.629h-.2537v-2.629zm.4768 0h.2639v2.629h-.2637v-2.629zm.4873 0h.2639v2.629h-.2639zm.4869 0h.2639v2.629h-.2639zm.4872 0h.2638v2.629h-.2638zm.487 0h.2536v2.629h-.2536z" fill="#23a3c2"/><path d="m74.6851 166.155c.1175-.001.2341.02.3431.063.1089.043.2081.107.2917.188s.15.178.1953.284.0687.221.0686.336c0 .115-.0233.229-.0687.336-.0453.106-.1118.202-.1954.283s-.1828.145-.2918.188-.2256.065-.3431.063c-.2331-.003-.4556-.096-.6193-.259s-.2555-.383-.2554-.611c0-.229.0918-.449.2556-.612s.3863-.256.6194-.259z" fill="#d3ecec"/><path d="m74.6852 166.402c.0811 0 .1584.015.2298.042-.0492.029-.0877.072-.1094.123-.0218.052-.0256.109-.0108.163.0147.054.0471.102.0923.136.0451.034.1004.053.1573.053.0982 0 .1833-.053.2274-.132.0523.123.0627.26.0297.389-.0331.13-.1077.246-.213.331-.1052.085-.2355.134-.3716.141s-.2707-.03-.384-.104c-.1134-.074-.1994-.182-.2453-.308-.046-.126-.0495-.263-.01-.391s.1199-.24.2293-.32.242-.123.3783-.123zm-15.6852-2.05h41.251c-.8978-.224-2.8414-.526-2.5209-1.681-1.6334 1.855-5.572 1.301-6.5661.387-1.1069 1.575-7.551.976-8.0004-.251-1.3878 1.598-5.6878 1.598-7.0756 0-.4497 1.227-6.8937 1.826-8.0007.251-.994.914-4.9324 1.468-6.5658-.387.3205 1.155-1.6231 1.457-2.5215 1.681" fill="#364548"/><path d="m77.0426 172.427c-2.1961-1.023-3.4014-2.413-4.0721-3.931-.8159.229-1.7963.375-2.9358.437-.4292.024-.8807.036-1.3543.036-.5463 0-1.1219-.016-1.7263-.047 2.014 1.975 4.4916 3.496 9.0792 3.524.3386 0 .6747-.007 1.0093-.019z" fill="#bdd9d7"/><path d="m73.7862 169.897c-.3038-.405-.5986-.914-.8153-1.401-.8158.229-1.7966.375-2.9362.438.7827.417 1.9021.803 3.7516.963" fill="#d3ecec"/></g></svg>

<svg width="212" height="210" viewBox="0 0 212 210" fill="none" xmlns="http://www.w3.org/2000/svg">
<rect y="112" width="163" height="98" fill="#11175C"/>
<path d="M162 112L183 94V182.128L168 208" stroke="#5A63B8" stroke-width="1.85353" stroke-linecap="round"/>
<path d="M4 106L19.2864 90H181" stroke="#5A63B8" stroke-width="1.85353" stroke-linecap="round"/>
<path d="M28 122C28 132.236 28 153.515 28 156.747C28 159.98 28 165.636 28 168.061V174.525V202" stroke="#777DBA" stroke-width="1.85353" stroke-linecap="round"/>
<path d="M48 202C48 191.764 48 170.485 48 167.253C48 164.02 48 158.364 48 155.939L50 149.475V122" stroke="#777DBA" stroke-width="1.85353" stroke-linecap="round"/>
<path d="M74 122C74 132.236 74 153.515 74 156.747C74 159.98 74 165.636 74 168.061L70 174.525V202" stroke="#777DBA" stroke-width="1.85353" stroke-linecap="round"/>
<path d="M91 202C91 191.764 91 170.485 91 167.253C91 164.02 91 158.364 91 155.939L93 149.475V122" stroke="#777DBA" stroke-width="1.85353" stroke-linecap="round"/>
<path d="M113 122C113 132.236 113 153.515 113 156.747C113 159.98 113 165.636 113 168.061V174.525V202" stroke="#777DBA" stroke-width="1.85353" stroke-linecap="round"/>
<path d="M133 202C133 191.764 133 170.485 133 167.253C133 164.02 133 158.364 133 155.939L135 149.475V122" stroke="#777DBA" stroke-width="1.85353" stroke-linecap="round"/>
<rect x="44" y="19" width="149" height="89" fill="#11175C"/>
<path d="M193 16.4043L211 3V84.1702L196 108" stroke="#5A63B8" stroke-width="1.85353" stroke-linecap="round"/>
<path d="M46 15L60.0773 1H209" stroke="#5A63B8" stroke-width="1.85353" stroke-linecap="round"/>
<path d="M70 29C70 38.3401 70 57.7576 70 60.7071C70 63.6566 70 68.8182 70 71.0303L68 76.9293V102" stroke="#777DBA" stroke-width="1.85353" stroke-linecap="round"/>
<path d="M87 102C87 92.6599 87 73.2424 87 70.2929C87 67.3434 87 62.1818 87 59.9697V54.0707V29" stroke="#777DBA" stroke-width="1.85353" stroke-linecap="round"/>
<path d="M109 29C109 38.3401 109 57.7576 109 60.7071C109 63.6566 109 68.8182 109 71.0303L107 76.9293V102" stroke="#777DBA" stroke-width="1.85353" stroke-linecap="round"/>
<path d="M127 102C127 92.6599 127 73.2424 127 70.2929C127 67.3434 127 62.1818 127 59.9697L129 54.0707V29" stroke="#777DBA" stroke-width="1.85353" stroke-linecap="round"/>
<path d="M147 29C147 38.3401 147 57.7576 147 60.7071C147 63.6566 147 68.8182 147 71.0303L145 76.9293V102" stroke="#777DBA" stroke-width="1.85353" stroke-linecap="round"/>
<path d="M165 102C165 92.6599 165 73.2424 165 70.2929C165 67.3434 165 62.1818 165 59.9697L167 54.0707V29" stroke="#777DBA" stroke-width="1.85353" stroke-linecap="round"/>
<rect x="89" y="36" width="54" height="54" rx="25" fill="white"/>
<path d="M120.821 78.906C120.821 78.906 121.529 75.4871 124.488 71.3834C126.545 70.1951 128.608 68.739 130.355 66.9922C131.97 58.9822 129.518 50.3881 129.518 50.3881C129.518 50.3881 120.924 47.9365 112.914 49.5517C111.167 51.2996 109.711 53.3622 108.523 55.4183C104.418 58.3767 101 59.0846 101 59.0846C101 59.0846 103.734 60.9617 105.053 63.0917C104.491 64.7122 104.227 65.7562 104.227 65.7562C104.441 66.7562 105.074 67.9226 105.947 69.0996C105.344 69.5777 104.638 70.0749 103.87 70.4906C103.777 70.5411 103.684 70.5899 103.59 70.6371C104.249 72.8106 107.16 75.5484 109.28 76.2861C109.323 76.2011 109.368 76.1173 109.413 76.0339C109.841 75.2452 110.354 74.5206 110.844 73.9069C112.032 74.7687 113.193 75.411 114.149 75.6776C114.149 75.6776 115.195 75.414 116.815 74.8522C118.944 76.1717 120.821 78.906 120.821 78.906ZM114.78 71.6661C113.56 71.1379 111.941 69.8374 110.837 68.7329C109.345 67.2403 108.536 65.9689 108.226 65.1776C108.75 63.3909 110.764 57.2183 114.631 53.0687C119.296 52.2767 124.182 53.128 126.309 53.5968C126.777 55.7228 127.63 60.6101 126.837 65.2742C122.713 69.1215 116.63 71.1222 114.78 71.6661H114.78Z" fill="#54A3DA"/>
<path d="M118.868 64.2709C120.633 64.2709 122.063 62.8407 122.063 61.0764C122.063 59.3121 120.633 57.8818 118.868 57.8818C117.104 57.8818 115.674 59.3121 115.674 61.0764C115.674 62.8407 117.104 64.2709 118.868 64.2709Z" fill="#F1616E"/>
<rect x="52.5249" y="133.92" width="54.6687" height="54.6687" rx="27.3343" fill="white"/>
<path fill-rule="evenodd" clip-rule="evenodd" d="M82.9221 157.28H86.6309V161H88.5061C89.3722 161 90.2629 160.849 91.0829 160.576C91.486 160.442 91.9382 160.256 92.3357 160.021C91.8122 159.35 91.5449 158.503 91.4664 157.668C91.3593 156.532 91.5929 155.054 92.376 154.165L92.7659 153.723L93.2304 154.09C94.4 155.012 95.3838 156.3 95.5572 157.769C96.9655 157.363 98.6191 157.459 99.8604 158.162L100.37 158.451L100.102 158.964C99.0519 160.975 96.8568 161.598 94.711 161.488C91.4999 169.337 84.5091 173.052 76.0328 173.052C71.6534 173.052 67.6358 171.446 65.3478 167.633L65.3104 167.571L64.977 166.905C64.2037 165.227 63.9468 163.388 64.121 161.551L64.1733 161H67.345V157.28H71.0536V153.64H78.4714V150H82.9221V157.28Z" fill="#364548"/>
<path fill-rule="evenodd" clip-rule="evenodd" d="M94.938 158.656C95.1867 156.76 93.7404 155.27 92.8434 154.562C91.8097 155.735 91.6491 158.809 93.2708 160.103C92.3657 160.892 90.4588 161.607 88.5061 161.607H64.7368C64.547 163.608 64.9048 165.45 65.7222 167.027L65.9925 167.512C66.1637 167.797 66.3508 168.072 66.5529 168.337C67.5302 168.399 68.4312 168.42 69.2555 168.402H69.2558C70.8757 168.367 72.1974 168.179 73.1992 167.839C73.27 167.817 73.3466 167.823 73.4128 167.856C73.479 167.889 73.5296 167.946 73.5539 168.015C73.5782 168.083 73.5742 168.159 73.5429 168.225C73.5116 168.291 73.4554 168.342 73.3862 168.368C73.2528 168.414 73.114 168.456 72.9706 168.496H72.9701C72.1814 168.717 71.3355 168.866 70.2442 168.932C70.3091 168.933 70.1768 168.942 70.1764 168.942C70.1393 168.944 70.0926 168.949 70.0553 168.951C69.6258 168.975 69.1622 168.98 68.6883 168.98C68.1699 168.98 67.6594 168.97 67.0887 168.942L67.0741 168.951C69.0545 171.136 72.1512 172.446 76.0329 172.446C84.2479 172.446 91.2159 168.872 94.3016 160.849C96.4906 161.069 98.5945 160.521 99.5514 158.688C98.0271 157.824 96.0668 158.1 94.938 158.656Z" fill="#22A0C8"/>
<path fill-rule="evenodd" clip-rule="evenodd" d="M94.938 158.656C95.1867 156.76 93.7404 155.27 92.8434 154.562C91.8097 155.735 91.6491 158.809 93.2708 160.103C92.3657 160.892 90.4588 161.607 88.5061 161.607H66.1443C66.0473 164.671 67.2057 166.996 69.2553 168.402H69.2558C70.8756 168.367 72.1974 168.179 73.1991 167.839C73.2699 167.817 73.3465 167.823 73.4127 167.856C73.4789 167.889 73.5295 167.946 73.5538 168.015C73.5781 168.083 73.5742 168.159 73.5429 168.225C73.5116 168.291 73.4554 168.342 73.3861 168.368C73.2528 168.414 73.114 168.456 72.9706 168.496H72.9701C72.1813 168.717 71.2628 168.885 70.1715 168.951C70.1712 168.951 70.1451 168.927 70.1448 168.927C72.9406 170.334 76.9944 170.329 81.6422 168.577C86.8536 166.612 91.7031 162.869 95.0868 158.587C95.0358 158.61 94.9862 158.633 94.938 158.656Z" fill="#37B1D9"/>
<path fill-rule="evenodd" clip-rule="evenodd" d="M64.7812 164.037C64.9289 165.109 65.2484 166.112 65.722 167.026L65.9924 167.511C66.1636 167.796 66.3506 168.072 66.5528 168.337C67.5302 168.398 68.4312 168.419 69.2556 168.402C70.8755 168.366 72.1973 168.179 73.199 167.838C73.2698 167.816 73.3464 167.823 73.4126 167.855C73.4788 167.888 73.5294 167.945 73.5537 168.014C73.578 168.083 73.5741 168.158 73.5428 168.224C73.5115 168.29 73.4553 168.341 73.386 168.367C73.2527 168.413 73.1138 168.455 72.9705 168.496H72.97C72.1812 168.717 71.2675 168.875 70.1763 168.941C70.1388 168.943 70.0734 168.944 70.0356 168.946C69.6065 168.969 69.1476 168.984 68.6735 168.984C68.1553 168.984 67.6252 168.974 67.0548 168.946C69.0352 171.13 72.151 172.445 76.0328 172.445C83.0656 172.445 89.1844 169.826 92.7357 164.037H64.7812Z" fill="#1B81A5"/>
<path fill-rule="evenodd" clip-rule="evenodd" d="M66.3584 164.037C66.7788 165.919 67.7891 167.396 69.2559 168.402C70.8758 168.367 72.1975 168.179 73.1993 167.838C73.2701 167.816 73.3467 167.823 73.4129 167.856C73.4791 167.888 73.5297 167.945 73.554 168.014C73.5783 168.083 73.5743 168.158 73.543 168.224C73.5118 168.29 73.4555 168.341 73.3863 168.367C73.2529 168.413 73.1141 168.455 72.9707 168.496H72.9702C72.1815 168.717 71.2485 168.875 70.1571 168.941C72.9527 170.348 76.9948 170.328 81.6423 168.576C84.4538 167.516 87.1598 165.938 89.5874 164.037H66.3584Z" fill="#1D91B4"/>
<path fill-rule="evenodd" clip-rule="evenodd" d="M67.9629 157.886H71.1773V161.041H67.9629V157.886ZM68.2307 158.149H68.4844V160.778H68.2307V158.149ZM68.7075 158.149H68.9714V160.778H68.7077V158.149H68.7075ZM69.1945 158.149H69.4584V160.778H69.1945V158.149ZM69.6817 158.149H69.9454V160.778H69.6817V158.149ZM70.1688 158.149H70.4325V160.778H70.1688V158.149ZM70.6557 158.149H70.9095V160.778H70.6557V158.149ZM71.6717 154.246H74.8863V157.401H71.6715V154.246H71.6717ZM71.9396 154.509H72.1932V157.138H71.9396V154.509ZM72.4165 154.509H72.6802V157.138H72.4167V154.509H72.4165ZM72.9034 154.509H73.1672V157.138H72.9034V154.509ZM73.3905 154.509H73.6542V157.138H73.3905V154.509ZM73.8776 154.509H74.1415V157.138H73.8776V154.509ZM74.3645 154.509H74.6185V157.138H74.3645V154.509Z" fill="#23A3C2"/>
<path fill-rule="evenodd" clip-rule="evenodd" d="M71.672 157.886H74.8866V161.04H71.6719V157.886H71.672ZM71.94 158.149H72.1935V160.778H71.94V158.149ZM72.4168 158.149H72.6806V160.778H72.417V158.149H72.4168ZM72.9038 158.149H73.1675V160.778H72.9038V158.149ZM73.3908 158.149H73.6546V160.778H73.3908V158.149ZM73.8779 158.149H74.1418V160.778H73.8779V158.149ZM74.3648 158.149H74.6188V160.778H74.3648V158.149Z" fill="#34BBDE"/>
<path fill-rule="evenodd" clip-rule="evenodd" d="M75.3809 157.886H78.5953V161.04H75.3809V157.886ZM75.6486 158.149H75.9022V160.778H75.6486V158.149ZM76.1255 158.149H76.3892V160.778H76.1255V158.149ZM76.6126 158.149H76.8763V160.778H76.6126V158.149ZM77.0997 158.149H77.3634V160.778H77.0997V158.149ZM77.5866 158.149H77.8506V160.778H77.5866V158.149ZM78.0737 158.149H78.3273V160.778H78.0737V158.149Z" fill="#23A3C2"/>
<path fill-rule="evenodd" clip-rule="evenodd" d="M75.3809 154.246H78.5953V157.401H75.3809V154.246ZM75.6486 154.509H75.9022V157.138H75.6486V154.509ZM76.1255 154.509H76.3892V157.138H76.1255V154.509ZM76.6126 154.509H76.8763V157.138H76.6126V154.509ZM77.0997 154.509H77.3634V157.138H77.0997V154.509ZM77.5866 154.509H77.8506V157.138H77.5866V154.509ZM78.0737 154.509H78.3273V157.138H78.0737V154.509ZM79.0897 157.886H82.3041V161.041H79.0897V157.886ZM79.3576 158.149H79.6111V160.778H79.3576V158.149ZM79.8345 158.149H80.0982V160.778H79.8345V158.149ZM80.3214 158.149H80.5851V160.778H80.3214V158.149ZM80.8085 158.149H81.0724V160.778H80.8085V158.149ZM81.2956 158.149H81.5595V160.778H81.2956V158.149ZM81.7826 158.149H82.0363V160.778H81.7826V158.149Z" fill="#34BBDE"/>
<path fill-rule="evenodd" clip-rule="evenodd" d="M79.0894 154.246H82.3038V157.401H79.0894V154.246ZM79.3573 154.509H79.6108V157.138H79.3573V154.509ZM79.8342 154.509H80.0979V157.138H79.8342V154.509ZM80.3211 154.509H80.5848V157.138H80.3211V154.509ZM80.8082 154.509H81.0721V157.138H80.8082V154.509ZM81.2953 154.509H81.5591V157.138H81.2953V154.509ZM81.7823 154.509H82.036V157.138H81.7823V154.509Z" fill="#23A3C2"/>
<path fill-rule="evenodd" clip-rule="evenodd" d="M79.0894 150.606H82.3038V153.761H79.0894V150.606ZM79.3573 150.869H79.6108V153.498H79.3573V150.869V150.869ZM79.8342 150.869H80.0979V153.498H79.8342V150.869V150.869ZM80.3211 150.869H80.5848V153.498H80.3211V150.869V150.869ZM80.8082 150.869H81.0721V153.498H80.8082V150.869V150.869ZM81.2953 150.869H81.5591V153.498H81.2953V150.869V150.869ZM81.7823 150.869H82.036V153.498H81.7823V150.869V150.869Z" fill="#34BBDE"/>
<path fill-rule="evenodd" clip-rule="evenodd" d="M82.7983 157.886H86.0128V161.04H82.7983V157.886ZM83.066 158.149H83.3198V160.778H83.0661V158.149H83.066ZM83.5428 158.149H83.8067V160.778H83.543V158.149H83.5428ZM84.0301 158.149H84.294V160.778H84.0301V158.149ZM84.517 158.149H84.7809V160.778H84.517V158.149ZM85.0042 158.149H85.268V160.778H85.0042V158.149ZM85.4912 158.149H85.7448V160.778H85.4912V158.149Z" fill="#23A3C2"/>
<path fill-rule="evenodd" clip-rule="evenodd" d="M74.6851 166.155C74.8026 166.154 74.9192 166.175 75.0282 166.218C75.1371 166.261 75.2363 166.325 75.3199 166.406C75.4035 166.487 75.4699 166.584 75.5152 166.69C75.5605 166.796 75.5839 166.911 75.5838 167.026C75.5838 167.141 75.5605 167.255 75.5151 167.362C75.4698 167.468 75.4033 167.564 75.3197 167.645C75.2361 167.726 75.1369 167.79 75.0279 167.833C74.9189 167.876 74.8023 167.898 74.6848 167.896C74.4517 167.893 74.2292 167.8 74.0655 167.637C73.9018 167.474 73.81 167.254 73.8101 167.026C73.8101 166.797 73.9019 166.577 74.0657 166.414C74.2295 166.251 74.452 166.158 74.6851 166.155Z" fill="#D3ECEC"/>
<path fill-rule="evenodd" clip-rule="evenodd" d="M74.6852 166.402C74.7663 166.402 74.8436 166.417 74.915 166.444C74.8658 166.473 74.8273 166.516 74.8056 166.567C74.7838 166.619 74.78 166.676 74.7948 166.73C74.8095 166.784 74.8419 166.832 74.8871 166.866C74.9322 166.9 74.9875 166.919 75.0444 166.919C75.1426 166.919 75.2277 166.866 75.2718 166.787C75.3241 166.91 75.3345 167.047 75.3015 167.176C75.2684 167.306 75.1938 167.422 75.0885 167.507C74.9833 167.592 74.853 167.641 74.7169 167.648C74.5808 167.655 74.4462 167.618 74.3329 167.544C74.2195 167.47 74.1335 167.362 74.0876 167.236C74.0416 167.11 74.0381 166.973 74.0776 166.845C74.1171 166.717 74.1975 166.605 74.3069 166.525C74.4163 166.445 74.5489 166.402 74.6852 166.402ZM59 164.352H100.251C99.3532 164.128 97.4096 163.826 97.7301 162.671C96.0967 164.526 92.1581 163.972 91.164 163.058C90.0571 164.633 83.613 164.034 83.1636 162.807C81.7758 164.405 77.4758 164.405 76.088 162.807C75.6383 164.034 69.1943 164.633 68.0873 163.058C67.0933 163.972 63.1549 164.526 61.5215 162.671C61.842 163.826 59.8984 164.128 59 164.352" fill="#364548"/>
<path fill-rule="evenodd" clip-rule="evenodd" d="M77.0426 172.427C74.8465 171.404 73.6412 170.014 72.9705 168.496C72.1546 168.725 71.1742 168.871 70.0347 168.933C69.6055 168.957 69.154 168.969 68.6804 168.969C68.1341 168.969 67.5585 168.953 66.9541 168.922C68.9681 170.897 71.4457 172.418 76.0333 172.446C76.3719 172.446 76.708 172.439 77.0426 172.427Z" fill="#BDD9D7"/>
<path fill-rule="evenodd" clip-rule="evenodd" d="M73.7862 169.897C73.4824 169.492 73.1876 168.983 72.9709 168.496C72.1551 168.725 71.1743 168.871 70.0347 168.934C70.8174 169.351 71.9368 169.737 73.7863 169.897" fill="#D3ECEC"/>
</svg>
